SVG_Azure_Grouped/Office365/O365.svg

<?xml version="1.0" encoding="UTF-8" standalone="no"?>
<!-- Generated by Microsoft Visio, SVG Export O365.svg Page-1 -->

<svg
   xmlns:dc="http://purl.org/dc/elements/1.1/"
   xmlns:cc="http://creativecommons.org/ns#"
   xmlns:rdf="http://www.w3.org/1999/02/22-rdf-syntax-ns#"
   xmlns:svg="http://www.w3.org/2000/svg"
   xmlns="http://www.w3.org/2000/svg"
   xmlns:sodipodi="http://sodipodi.sourceforge.net/DTD/sodipodi-0.dtd"
   xmlns:inkscape="http://www.inkscape.org/namespaces/inkscape"
   width="0.78740078in"
   height="0.78740078in"
   viewBox="0 0 56.692903 56.692837"
   xml:space="preserve"
   class="st5"
   version="1.1"
   id="svg73"
   sodipodi:docname="O365.svg"
   style="font-size:12px;overflow:visible;color-interpolation-filters:sRGB;fill:none;fill-rule:evenodd;stroke-linecap:square;stroke-miterlimit:3"
   inkscape:version="0.92.5 (2060ec1f9f, 2020-04-08)"><metadata
   id="metadata77"><rdf:RDF><cc:Work
       rdf:about=""><dc:format>image/svg+xml</dc:format><dc:type
         rdf:resource="http://purl.org/dc/dcmitype/StillImage" /></cc:Work></rdf:RDF></metadata><sodipodi:namedview
   pagecolor="#ffffff"
   bordercolor="#666666"
   borderopacity="1"
   objecttolerance="10"
   gridtolerance="10"
   guidetolerance="10"
   inkscape:pageopacity="0"
   inkscape:pageshadow="2"
   inkscape:window-width="640"
   inkscape:window-height="480"
   id="namedview75"
   showgrid="false"
   inkscape:zoom="1.6085201"
   inkscape:cx="37.795301"
   inkscape:cy="28.005313"
   inkscape:window-x="0"
   inkscape:window-y="0"
   inkscape:window-maximized="0"
   inkscape:current-layer="svg73" />
	<style
   type="text/css"
   id="style2">
	<![CDATA[
		.st1 {fill:url(#grad0-6);stroke:none;stroke-linecap:butt;stroke-width:19.3305}
		.st2 {fill:none;stroke:none;stroke-linecap:butt;stroke-width:19.3305}
		.st3 {fill:url(#grad0-14);stroke:none;stroke-linecap:butt;stroke-width:19.3305}
		.st4 {fill:url(#grad0-18);stroke:none;stroke-linecap:butt;stroke-width:19.3305}
		.st5 {fill:none;fill-rule:evenodd;font-size:12px;overflow:visible;stroke-linecap:square;stroke-miterlimit:3}
	]]>
	</style>

	<defs
   id="Patterns_And_Gradients">
		<linearGradient
   id="grad0-6"
   x1="0"
   y1="34.256825"
   x2="31.946565"
   y2="34.256825"
   gradientTransform="scale(0.60163022,1.6621505)"
   gradientUnits="userSpaceOnUse">
			<stop
   offset="0"
   stop-color="#ffce00"
   stop-opacity="1"
   id="stop4" />
			<stop
   offset="0.05"
   stop-color="#fabb00"
   stop-opacity="1"
   id="stop6" />
			<stop
   offset="0.2"
   stop-color="#eb8401"
   stop-opacity="1"
   id="stop8" />
			<stop
   offset="0.335"
   stop-color="#e15c01"
   stop-opacity="1"
   id="stop10" />
			<stop
   offset="0.435"
   stop-color="#da4401"
   stop-opacity="1"
   id="stop12" />
			<stop
   offset="0.5"
   stop-color="#d83b01"
   stop-opacity="1"
   id="stop14" />
		</linearGradient>
		<linearGradient
   id="grad0-14"
   x1="-1.5161126e-06"
   y1="53.119619"
   x2="33.682918"
   y2="53.119619"
   gradientTransform="scale(0.78882714,1.2677049)"
   gradientUnits="userSpaceOnUse">
			<stop
   offset="0"
   stop-color="#8c0700"
   stop-opacity="1"
   id="stop17" />
			<stop
   offset="0.6"
   stop-color="#c72127"
   stop-opacity="1"
   id="stop19" />
			<stop
   offset="0.645"
   stop-color="#ca2b3d"
   stop-opacity="1"
   id="stop21" />
			<stop
   offset="0.765"
   stop-color="#d04374"
   stop-opacity="1"
   id="stop23" />
			<stop
   offset="0.87"
   stop-color="#d5559c"
   stop-opacity="1"
   id="stop25" />
			<stop
   offset="0.95"
   stop-color="#d860b4"
   stop-opacity="1"
   id="stop27" />
			<stop
   offset="1"
   stop-color="#d964bd"
   stop-opacity="1"
   id="stop29" />
		</linearGradient>
		<linearGradient
   id="grad0-18"
   x1="-0.058756"
   y1="130.82361"
   x2="14.240366"
   y2="130.82361"
   gradientTransform="scale(1.3187865,0.75827285)"
   gradientUnits="userSpaceOnUse">
			<stop
   offset="0"
   stop-color="#fa2c46"
   stop-opacity="1"
   id="stop32" />
			<stop
   offset="0.6"
   stop-color="#b0080b"
   stop-opacity="1"
   id="stop34" />
		</linearGradient>
	</defs>
	<g
   id="g71"
   transform="translate(-19.3305,-19.330662)">
		<title
   id="title38">Page-1</title>
		<g
   id="group20692-1"
   transform="translate(19.3305,-34.0157)">
			<title
   id="title40">O365.20692</title>
			<g
   id="group20693-2">
				<title
   id="title42">_32</title>
				<g
   id="shape20694-3"
   transform="translate(30.3839,-1.71851)">
					<title
   id="title44">path49</title>
					<path
   d="m 0,56.94 15.36,4.24 a 5.31496,5.31496 -180 0 1 3.86,5.1 v 34.26 a 5.2937,5.2937 -180 0 1 -3.86,5.11 L 0,110.04 3.28,99.36 v -32.9 z"
   class="st1"
   id="path46"
   inkscape:connector-curvature="0"
   style="fill:url(#grad0-6);stroke:none;stroke-width:19.33049965;stroke-linecap:butt" />
				</g>
				<g
   id="shape20695-7">
					<title
   id="title49">rect51</title>
					<rect
   x="0"
   y="53.346298"
   width="56.692902"
   height="56.692902"
   class="st2"
   id="rect51"
   style="fill:none;stroke:none;stroke-width:19.33049965;stroke-linecap:butt" />
				</g>
				<g
   id="shape20696-9">
					<title
   id="title54">rect61</title>
					<rect
   x="0"
   y="53.346298"
   width="56.692902"
   height="56.692902"
   class="st2"
   id="rect56"
   style="fill:none;stroke:none;stroke-width:19.33049965;stroke-linecap:butt" />
				</g>
				<g
   id="shape20697-11"
   transform="translate(7.08661,-12.4016)">
					<title
   id="title59">path53-8</title>
					<path
   d="m 21.63,67.34 a 4.94646,4.94646 -90 0 0 -2.44,0.65 l -16.5,9.4 A 5.37697,5.37697 0 0 0 0,81.99 v 25.39 a 2.65748,2.65748 0 0 0 2.66,2.66 2.58484,2.58484 -90 0 0 1.27,-0.34 l 4.63,-2.51 a 3.96142,3.96142 -90 0 0 2.07,-3.49 V 85.68 a 3.97913,3.97913 -180 0 1 2.64,-3.76 l 13.3,-4.78 v -4.86 a 4.94114,4.94114 0 0 0 -4.94,-4.94 z"
   class="st3"
   id="path61"
   inkscape:connector-curvature="0"
   style="fill:url(#grad0-14);stroke:none;stroke-width:19.33049965;stroke-linecap:butt" />
				</g>
				<g
   id="shape20698-15"
   transform="translate(14.8756,-1.56438)">
					<title
   id="title64">path55-4</title>
					<path
   d="M 18.78,105.31 V 99.2 H 2.22 a 2.29252,2.29252 -90 0 0 -1.13,4.29 l 10.05,5.69 0.29,0.17 a 5.63917,5.63917 0 0 0 2.88,0.69 5.47972,5.47972 0 0 0 1.2,-0.15 4.83484,4.83484 0 0 0 3.27,-4.58 z"
   class="st4"
   id="path66"
   inkscape:connector-curvature="0"
   style="fill:url(#grad0-18);stroke:none;stroke-width:19.33049965;stroke-linecap:butt" />
				</g>
			</g>
		</g>
	</g>
</svg>

<?xml version="1.0" encoding="UTF-8" standalone="no"?>
<!DOCTYPE svg PUBLIC "-//W3C//DTD SVG 1.1//EN" "http://www.w3.org/Graphics/SVG/1.1/DTD/svg11.dtd">
<!-- Generated by Microsoft Visio, SVG Export O365.svg Page-1 -->
<svg xmlns="http://www.w3.org/2000/svg" xmlns:xlink="http://www.w3.org/1999/xlink" xmlns:ev="http://www.w3.org/2001/xml-events"
		width="1.32436in" height="1.52832in" viewBox="0 0 95.354 110.039" xml:space="preserve" color-interpolation-filters="sRGB"
		class="st5">
	<style type="text/css">
	<![CDATA[
		.st1 {fill:url(#grad0-6);stroke:none;stroke-linecap:butt;stroke-width:19.3305}
		.st2 {fill:none;stroke:none;stroke-linecap:butt;stroke-width:19.3305}
		.st3 {fill:url(#grad0-14);stroke:none;stroke-linecap:butt;stroke-width:19.3305}
		.st4 {fill:url(#grad0-18);stroke:none;stroke-linecap:butt;stroke-width:19.3305}
		.st5 {fill:none;fill-rule:evenodd;font-size:12px;overflow:visible;stroke-linecap:square;stroke-miterlimit:3}
	]]>
	</style>

	<defs id="Patterns_And_Gradients">
		<linearGradient id="grad0-6" x1="0" y1="0" x2="1" y2="0" gradientTransform="rotate(88.389246746453 0.5 0.5)">
			<stop offset="0" stop-color="#ffce00" stop-opacity="1"/>
			<stop offset="0.05" stop-color="#fabb00" stop-opacity="1"/>
			<stop offset="0.2" stop-color="#eb8401" stop-opacity="1"/>
			<stop offset="0.335" stop-color="#e15c01" stop-opacity="1"/>
			<stop offset="0.435" stop-color="#da4401" stop-opacity="1"/>
			<stop offset="0.5" stop-color="#d83b01" stop-opacity="1"/>
		</linearGradient>
		<linearGradient id="grad0-14" x1="0" y1="0" x2="1" y2="0" gradientTransform="rotate(138.36772760595 0.5 0.5)">
			<stop offset="0" stop-color="#8c0700" stop-opacity="1"/>
			<stop offset="0.6" stop-color="#c72127" stop-opacity="1"/>
			<stop offset="0.645" stop-color="#ca2b3d" stop-opacity="1"/>
			<stop offset="0.765" stop-color="#d04374" stop-opacity="1"/>
			<stop offset="0.87" stop-color="#d5559c" stop-opacity="1"/>
			<stop offset="0.95" stop-color="#d860b4" stop-opacity="1"/>
			<stop offset="1" stop-color="#d964bd" stop-opacity="1"/>
		</linearGradient>
		<linearGradient id="grad0-18" x1="0" y1="0" x2="1" y2="0" gradientTransform="rotate(0 0.5 0.5)">
			<stop offset="0" stop-color="#fa2c46" stop-opacity="1"/>
			<stop offset="0.6" stop-color="#b0080b" stop-opacity="1"/>
		</linearGradient>
	</defs>
	<g>
		<title>Page-1</title>
		<g id="group20237-1" transform="translate(19.3305,-34.0157)">
			<title>O365.20237</title>
			<g id="group20238-2">
				<title>_32</title>
				<g id="shape20239-3" transform="translate(30.3839,-1.71851)">
					<title>path49</title>
					<path d="M0 56.94 L15.36 61.18 A5.31496 5.31496 180 0 1 19.22 66.28 L19.22 100.54 A5.2937 5.2937 180 0 1 15.36
								 105.65 L0 110.04 L3.28 99.36 L3.28 66.46 L0 56.94 Z" class="st1"/>
				</g>
				<g id="shape20240-7">
					<title>rect51</title>
					<rect x="0" y="53.3463" width="56.6929" height="56.6929" class="st2"/>
				</g>
				<g id="shape20241-9">
					<title>rect61</title>
					<rect x="0" y="53.3463" width="56.6929" height="56.6929" class="st2"/>
				</g>
				<g id="shape20242-11" transform="translate(7.08661,-12.4016)">
					<title>path53-8</title>
					<path d="M21.63 67.34 A4.94646 4.94646 -90 0 0 19.19 67.99 L2.69 77.39 A5.37697 5.37697 -0 0 0 -0 81.99 L0 107.38
								 A2.65748 2.65748 -0 0 0 2.66 110.04 A2.58484 2.58484 -90 0 0 3.93 109.7 L8.56 107.19 A3.96142 3.96142
								 -90 0 0 10.63 103.7 L10.63 85.68 A3.97913 3.97913 180 0 1 13.27 81.92 L26.57 77.14 L26.57 72.28
								 A4.94114 4.94114 -0 0 0 21.63 67.34 Z" class="st3"/>
				</g>
				<g id="shape20243-15" transform="translate(14.8756,-1.56438)">
					<title>path55-4</title>
					<path d="M18.78 105.31 L18.78 99.2 L2.22 99.2 A2.29252 2.29252 -90 0 0 1.09 103.49 L11.14 109.18 L11.43 109.35
								 A5.63917 5.63917 -0 0 0 14.31 110.04 A5.47972 5.47972 -0 0 0 15.51 109.89 A4.83484 4.83484 -0 0
								 0 18.78 105.31 Z" class="st4"/>
				</g>
			</g>
		</g>
	</g>
</svg>
